!!!SOCIAL_FUNCTION:	songs for success in ball game
!!!PDT:	1956
!!!OTL: No_224_Ball_Game_Song_(g).krn
!!!LANG: Non-Tone
!!!LING_GROUP: Muskogean
!!!REG: Florida
**kern
*staff1
=1-
*clefF4
*k[b-]
*M2/4
4r
8.r
16D\
=2
16D\LL
16F\
16F\
16F\JJ
4F\
=3
8A\L
8A\J
8G\L
16.F\L
32F\JJk
=4
16.D\LL
32F\K
16F\
16F\JJ
8F\
8r
=5
8F\L
8F\J
8.F\L
16F\Jk
=6
16.D\LL
32F\K
16F\
16F\JJ
8F\
8r
=7
16.F\LL
32D\K
16F\
16F\JJ
8.F\L
16F\Jk
=8
16.F\LL
32F\JK
8F\J
4c\
=9
8c\L
16c\L
16B-\JJ
8G\L
16.F\L
32F\JJk
=10
16D\LL
16F\
16F\
16F\JJ
8F\
8r
=11||
*M3/4
16.D\LL
32F\JK
8F\J
8F\L
[8c\J
8c\]
8r
==
*-
